X:52
T:Crushing the Twigs (reel) 
B:CRE2.183 (Mil na MaidÃÂÃÂÃÂÃÂ­) 
F:file ID: cre.2/052crush
Q:180
L:1/8
M:4/4
R:reel
K:D
E|FD~D2 FDGE|FDDF EDEG|FD~D2 FDEF|G2 BG EFGE|
"5"FD~D2 FDEG|FD~D2 EDEG|FD~D2 FDEF|(3GAG BG EFG||
B|"9"A2 Ad BGAF|DFAF EFGB|A2Ac BGAF|~G2BG EFGB|
"13"A2 Ad BGAF|DFAF EFGB|A2Ac BGAF|~G2BG EFG||
g|"17"fd~d2 fdeg|fd~d2 e^deg|fd~d2 fdef|g2 bg efge|
"21"fd~d2 fdeg|fd~d2 e^deg|fd~d2 fdef|g2 bg egf||
e|"25"d2Ad BGAF|DFAF EFGB|A2Ac BGAF|~G2BG EFGA|
"29"d2Ad BGAF|DFAF EFGB|A2Ac BGAF|~G2BG EFG||

%%%

